X:1
T:Herefordshire Lasses, The
M:2/4
L:1/8
S:Frank Kidson - Old English Country Dances (1890)
Z:AK/Fiddler's Companion
K:G
GB/d/ c/A/F/D/|G/B/d/g/ dc/B/|c/e/A/c/ B/d/G/B/|A/c/F/A/ GG,:|
|:dB/c/ dB/c/|d/g/f/e/ ed|gg/e/ ff/d/|e/g/e/^c/ dD|G B/d/ c/A/F/D/|
G/B/d/g/ dc/B/|c/e/A/c/ B/d/G/B/|A/c/A/F/ G2:|
